img/catalog/catalog green/catalog3...svg

<svg width="285" height="285" fill="none" xmlns="http://www.w3.org/2000/svg"><path d="M170.42 110.68c-6.72 0-14.75-.16-17 .66-2.25.82-4.76 8.85-5.58 14.26-.82 5.41-4.09 21.14-5.57 27-1.48 5.86-4.1 7.05-5.08 7.38-.98.33-.49-3.45-.33-9.18.16-5.73 2.13-20.33 1-26.06s-2.46-10.49-7.05-13.28c-4.59-2.79-12.79-3.6-15.9-4.92-3.11-1.32-16.23-1.64-17.21-1.8-.98-.16-.49 8.52-.49 8.52-1 15.25 0 30.33 4.09 40.82 4.09 10.49 21.8 37.37 24.92 41.63 3.12 4.26 6.06 5.73 7.37 6.23 1.31.5 13.12-7.38 17.05-11.15 3.93-3.77 22.13-30.32 25.73-37.53 3.6-7.21 7.38-20 8.36-26.06.98-6.06 1.31-13.28.82-14.92-.49-1.64-8.41-1.6-15.13-1.6Zm-52.77 18.52c-1.48 1.15-6.89 3.28-9.68 0a5.808 5.808 0 0 1 3.28-9.5s4.92-.66 6.4 1.31c1.48 1.97 1.47 7.04 0 8.19Zm18.19 52.94c-2.13.17-3.28.5-4.26-3.6s0-6.39 4.26-6.89c0 0 4.1-1 4.26 2.13.16 3.13-2.13 8.2-4.26 8.36Zm36.71-48.68c-2 2.14-6.23 3.45-8.52.82a5.91 5.91 0 0 1 2.13-9s4.59-1.15 6.39 0c1.8 1.15 1.97 6.05 0 8.18ZM108.3 94.62c4.76 5.57 7.71 5.41 5.25 0s-5.25-19.18-5.74-24.26c-.49-5.08-.52-9.67-1.24-13.11a31.166 31.166 0 0 0-4.33-10.49c-2.62-4.43-2.62 2.29-2.62 2.29-2.14 9.84-3.82 20.66-2.82 28.69 1 8.03 6.75 11.31 11.5 16.88ZM129.28 96.59c1.64 5.24 3.12 1.63 3.77-6.07.65-7.7.33-15.73-.82-20.49-1.15-4.76-1.31-13.44-1.31-18.68s.33-9.67-.49-12.29c-.82-2.62-3.11 4.91-3.11 4.91-3.94 9.84-6.4 16.72-5.09 27.21 1.31 10.49 5.41 20.16 7.05 25.41ZM143.74 93.8c2.94-4.92 6-17.55 6-21.81 0-4.26.66-11.46 0-16-.66-4.54-.66-11.31-1.15-14.92-.49-3.61-2.46 4.23-2.46 4.23-3.27 5.77-2.95 19-2.95 25s-1.43 16.88-1.94 22c-.51 5.12-.5 6.42 2.5 1.5ZM152.56 97.57c3.27-2 8.52-7.38 11.14-15.08a61.328 61.328 0 0 0 3.77-19.5c.33-7.22 1.28-16.72.89-20-.39-3.28-4.66 4.26-4.66 4.26-3.28 4.75-4.75 10.49-5.41 18-.66 7.51-2.13 20.32-4.75 25.41s-4.26 8.88-.98 6.91ZM187.3 47.91c-.82-2-3.77 6.06-3.77 6.06-3.76 5.9-3.93 16.06-6.22 22-2.29 5.94-5.41 16.89-7.38 20-1.97 3.11-3.61 7.13 2 2.17 5.61-4.96 10.82-12.17 13.11-19.71 2.29-7.54 2.13-11.8 2.29-16.72.16-4.92.79-11.84-.03-13.8ZM95.473 249.5h7.992c3.792 0 6.288-1.536 6.288-4.608 0-2.304-1.2-3.432-3.144-4.176 1.2-.672 2.208-1.728 2.208-3.624 0-1.2-.384-2.136-1.152-2.904-.96-.96-2.472-1.488-4.392-1.488h-7.8v16.8Zm3.6-10.008v-3.552h3.648c1.56 0 2.424.624 2.424 1.728 0 1.296-1.032 1.824-2.664 1.824h-3.408Zm0 6.768v-3.696h4.272c1.896 0 2.736.696 2.736 1.824 0 1.296-.984 1.872-2.616 1.872h-4.392Zm19.648 3.528c4.008 0 6.984-3 6.984-6.696 0-3.744-2.952-6.696-6.936-6.696-4.008 0-6.984 3-6.984 6.696 0 3.744 2.952 6.696 6.936 6.696Zm.048-3.144c-2.016 0-3.384-1.656-3.384-3.552 0-1.944 1.248-3.552 3.336-3.552 2.016 0 3.384 1.656 3.384 3.552 0 1.944-1.248 3.552-3.336 3.552Zm11.114-10.008c0 9.12-.72 9.912-2.088 9.912a7.59 7.59 0 0 1-.768-.072l-.24 2.952c.48.12 1.368.216 1.848.216 3.216 0 4.68-1.368 4.68-9.888h3.264v9.744h3.648v-12.864h-10.344Zm19.916 13.152c4.008 0 6.984-3 6.984-6.696 0-3.744-2.952-6.696-6.936-6.696-4.008 0-6.984 3-6.984 6.696 0 3.744 2.952 6.696 6.936 6.696Zm.048-3.144c-2.016 0-3.384-1.656-3.384-3.552 0-1.944 1.248-3.552 3.336-3.552 2.016 0 3.384 1.656 3.384 3.552 0 1.944-1.248 3.552-3.336 3.552Zm15.65 3.144c2.568 0 4.008-.984 5.256-2.352l-2.136-2.16c-.888.84-1.728 1.368-2.952 1.368-1.992 0-3.264-1.584-3.264-3.552 0-1.944 1.296-3.552 3.12-3.552 1.44 0 2.208.528 3 1.272l2.136-2.16c-1.2-1.344-2.688-2.256-5.112-2.256-3.936 0-6.744 3.024-6.744 6.696 0 3.72 2.832 6.696 6.696 6.696Zm7.639-.288h6.48c3.096 0 4.944-1.656 4.944-4.368 0-2.88-2.16-4.248-5.136-4.248h-2.64v-4.248h-3.648V249.5Zm5.928-5.856c1.2 0 1.824.552 1.824 1.44 0 .984-.6 1.536-1.8 1.536h-2.304v-2.976h2.28Zm7.2 5.856h3.648v-12.864h-3.648V249.5Z" fill="#333F48"/></svg>

<svg width="285" height="285" viewBox="0 0 285 285" fill="none" xmlns="http://www.w3.org/2000/svg">
<path d="M170.42 110.68C163.7 110.68 155.67 110.52 153.42 111.34C151.17 112.16 148.66 120.19 147.84 125.6C147.02 131.01 143.75 146.74 142.27 152.6C140.79 158.46 138.17 159.65 137.19 159.98C136.21 160.31 136.7 156.53 136.86 150.8C137.02 145.07 138.99 130.47 137.86 124.74C136.73 119.01 135.4 114.25 130.81 111.46C126.22 108.67 118.02 107.86 114.91 106.54C111.8 105.22 98.6801 104.9 97.7001 104.74C96.7201 104.58 97.2101 113.26 97.2101 113.26C96.2101 128.51 97.2101 143.59 101.3 154.08C105.39 164.57 123.1 191.45 126.22 195.71C129.34 199.97 132.28 201.44 133.59 201.94C134.9 202.44 146.71 194.56 150.64 190.79C154.57 187.02 172.77 160.47 176.37 153.26C179.97 146.05 183.75 133.26 184.73 127.2C185.71 121.14 186.04 113.92 185.55 112.28C185.06 110.64 177.14 110.68 170.42 110.68ZM117.65 129.2C116.17 130.35 110.76 132.48 107.97 129.2C107.305 128.43 106.853 127.499 106.661 126.499C106.469 125.5 106.543 124.468 106.875 123.506C107.207 122.544 107.786 121.686 108.554 121.018C109.322 120.35 110.251 119.896 111.25 119.7C111.25 119.7 116.17 119.04 117.65 121.01C119.13 122.98 119.12 128.05 117.65 129.2ZM135.84 182.14C133.71 182.31 132.56 182.64 131.58 178.54C130.6 174.44 131.58 172.15 135.84 171.65C135.84 171.65 139.94 170.65 140.1 173.78C140.26 176.91 137.97 181.98 135.84 182.14ZM172.55 133.46C170.55 135.6 166.32 136.91 164.03 134.28C163.481 133.581 163.096 132.768 162.905 131.9C162.714 131.031 162.721 130.131 162.925 129.266C163.13 128.402 163.527 127.594 164.087 126.904C164.647 126.213 165.356 125.658 166.16 125.28C166.16 125.28 170.75 124.13 172.55 125.28C174.35 126.43 174.52 131.33 172.55 133.46Z" fill="#333F48"/>
<path d="M108.3 94.6199C113.06 100.19 116.01 100.03 113.55 94.6199C111.09 89.2099 108.3 75.4401 107.81 70.3601C107.32 65.2801 107.29 60.6899 106.57 57.2499C105.781 53.5178 104.313 49.9622 102.24 46.76C99.6202 42.33 99.6202 49.05 99.6202 49.05C97.4802 58.89 95.8002 69.7099 96.8002 77.7399C97.8002 85.7699 103.55 89.0499 108.3 94.6199Z" fill="#333F48"/>
<path d="M129.28 96.59C130.92 101.83 132.4 98.2199 133.05 90.5199C133.7 82.8199 133.38 74.7899 132.23 70.0299C131.08 65.2699 130.92 56.59 130.92 51.35C130.92 46.11 131.25 41.68 130.43 39.06C129.61 36.44 127.32 43.97 127.32 43.97C123.38 53.81 120.92 60.69 122.23 71.18C123.54 81.67 127.64 91.34 129.28 96.59Z" fill="#333F48"/>
<path d="M143.74 93.8C146.68 88.88 149.74 76.25 149.74 71.99C149.74 67.73 150.4 60.53 149.74 55.99C149.08 51.45 149.08 44.68 148.59 41.07C148.1 37.46 146.13 45.3 146.13 45.3C142.86 51.07 143.18 64.3 143.18 70.3C143.18 76.3 141.75 87.18 141.24 92.3C140.73 97.42 140.74 98.72 143.74 93.8Z" fill="#333F48"/>
<path d="M152.56 97.57C155.83 95.57 161.08 90.1899 163.7 82.4899C166.008 76.2379 167.281 69.6516 167.47 62.9899C167.8 55.7699 168.75 46.2699 168.36 42.9899C167.97 39.7099 163.7 47.25 163.7 47.25C160.42 52 158.95 57.74 158.29 65.25C157.63 72.76 156.16 85.57 153.54 90.66C150.92 95.75 149.28 99.54 152.56 97.57Z" fill="#333F48"/>
<path d="M187.3 47.91C186.48 45.91 183.53 53.9701 183.53 53.9701C179.77 59.8701 179.6 70.0301 177.31 75.9701C175.02 81.9101 171.9 92.8601 169.93 95.9701C167.96 99.0801 166.32 103.1 171.93 98.14C177.54 93.18 182.75 85.97 185.04 78.43C187.33 70.89 187.17 66.6301 187.33 61.7101C187.49 56.7901 188.12 49.87 187.3 47.91Z" fill="#333F48"/>
<path d="M95.473 249.5H103.465C107.257 249.5 109.753 247.964 109.753 244.892C109.753 242.588 108.553 241.46 106.609 240.716C107.809 240.044 108.817 238.988 108.817 237.092C108.817 235.892 108.433 234.956 107.665 234.188C106.705 233.228 105.193 232.7 103.273 232.7H95.473V249.5ZM99.073 239.492V235.94H102.721C104.281 235.94 105.145 236.564 105.145 237.668C105.145 238.964 104.113 239.492 102.481 239.492H99.073ZM99.073 246.26V242.564H103.345C105.241 242.564 106.081 243.26 106.081 244.388C106.081 245.684 105.097 246.26 103.465 246.26H99.073ZM118.721 249.788C122.729 249.788 125.705 246.788 125.705 243.092C125.705 239.348 122.753 236.396 118.769 236.396C114.761 236.396 111.785 239.396 111.785 243.092C111.785 246.836 114.737 249.788 118.721 249.788ZM118.769 246.644C116.753 246.644 115.385 244.988 115.385 243.092C115.385 241.148 116.633 239.54 118.721 239.54C120.737 239.54 122.105 241.196 122.105 243.092C122.105 245.036 120.857 246.644 118.769 246.644ZM129.883 236.636C129.883 245.756 129.163 246.548 127.795 246.548C127.627 246.548 127.171 246.5 127.027 246.476L126.787 249.428C127.267 249.548 128.155 249.644 128.635 249.644C131.851 249.644 133.315 248.276 133.315 239.756H136.579V249.5H140.227V236.636H129.883ZM149.799 249.788C153.807 249.788 156.783 246.788 156.783 243.092C156.783 239.348 153.831 236.396 149.847 236.396C145.839 236.396 142.863 239.396 142.863 243.092C142.863 246.836 145.815 249.788 149.799 249.788ZM149.847 246.644C147.831 246.644 146.463 244.988 146.463 243.092C146.463 241.148 147.711 239.54 149.799 239.54C151.815 239.54 153.183 241.196 153.183 243.092C153.183 245.036 151.935 246.644 149.847 246.644ZM165.497 249.788C168.065 249.788 169.505 248.804 170.753 247.436L168.617 245.276C167.729 246.116 166.889 246.644 165.665 246.644C163.673 246.644 162.401 245.06 162.401 243.092C162.401 241.148 163.697 239.54 165.521 239.54C166.961 239.54 167.729 240.068 168.521 240.812L170.657 238.652C169.457 237.308 167.969 236.396 165.545 236.396C161.609 236.396 158.801 239.42 158.801 243.092C158.801 246.812 161.633 249.788 165.497 249.788ZM173.136 249.5H179.616C182.712 249.5 184.56 247.844 184.56 245.132C184.56 242.252 182.4 240.884 179.424 240.884H176.784V236.636H173.136V249.5ZM179.064 243.644C180.264 243.644 180.888 244.196 180.888 245.084C180.888 246.068 180.288 246.62 179.088 246.62H176.784V243.644H179.064ZM186.264 249.5H189.912V236.636H186.264V249.5Z" fill="#333F48"/>
</svg>
